assets/img/braze_icons/check-done-02.svg

<svg fill="none" height="24" viewBox="0 0 24 24" width="24" xmlns="http://www.w3.org/2000/svg"><g fill="#801ed7"><path clip-rule="evenodd" d="m18.8385 7h-7.677c-.5272-.00002-.982-.00003-1.35652.03057-.39535.0323-.78857.10362-1.16695.29641-.56448.28762-1.02342.74656-1.31104 1.31105-.1928.37838-.26411.7716-.29642 1.16694-.0306.37453-.03058.82933-.03057 1.35643v7.6771c-.00001.5272-.00003.982.03057 1.3565.03231.3954.10362.7886.29642 1.167.28762.5645.74656 1.0234 1.31104 1.311.37838.1928.7716.2641 1.16695.2964.37452.0306.82932.0306 1.35642.0306h7.6771c.5271 0 .982 0 1.3565-.0306.3954-.0323.7886-.1036 1.167-.2964.5645-.2876 1.0234-.7465 1.311-1.311.1928-.3784.2641-.7716.2964-1.167.0306-.3745.0306-.8293.0306-1.3565v-7.677c0-.5272 0-.9819-.0306-1.35653-.0323-.39534-.1036-.78856-.2964-1.16694-.2876-.56449-.7465-1.02343-1.311-1.31105-.3784-.19279-.7716-.26411-1.167-.29641-.3745-.0306-.8293-.03059-1.3565-.03057zm.3686 6.2071c.3905-.3905.3905-1.0237 0-1.4142s-1.0237-.3905-1.4142 0l-3.7929 3.7929-1.2929-1.2929c-.3905-.3905-1.0237-.3905-1.4142 0s-.3905 1.0237 0 1.4142l2 2c.3905.3905 1.0237.3905 1.4142 0z" fill-rule="evenodd"/><path d="m5.16146 1h7.67704c.5272-.000016.982-.000031 1.3565.03057.3954.0323.7886.10362 1.167.29641.5645.28762 1.0234.74656 1.311 1.31105.1928.37838.2641.7716.2964 1.16694.0275.33579.0303.73601.0306 1.19506l-5.8809-.00002c-.4886-.00011-1.0184-.00024-1.47699.03723-.51902.0424-1.20474.14736-1.91206.50775-.94081.47937-1.70571 1.24427-2.18508 2.18508-.36039.70732-.46535 1.39304-.50775 1.91206-.03747.45857-.03734.98837-.03723 1.47707l.00002 5.8808c-.45904-.0003-.85926-.0031-1.19504-.0306-.39534-.0323-.78856-.1036-1.16694-.2964-.56449-.2876-1.02343-.7465-1.31105-1.311-.19279-.3784-.26411-.7716-.29641-1.167-.030603-.3745-.030586-.8292-.03057-1.3564v-7.67712c-.000016-.52711-.000033-.98196.03057-1.35651.0323-.39534.10362-.78856.29641-1.16694.28762-.56449.74656-1.02343 1.31105-1.31105.37838-.19279.7716-.26411 1.16694-.29641.37456-.030601.82936-.030586 1.35649-.03057z"/></g></svg>

<svg width="24" height="24" viewBox="0 0 24 24" fill="none" xmlns="http://www.w3.org/2000/svg">
<path fill-rule="evenodd" clip-rule="evenodd" d="M18.8385 7H11.1615C10.6343 6.99998 10.1795 6.99997 9.80498 7.03057C9.40963 7.06287 9.01641 7.13419 8.63803 7.32698C8.07355 7.6146 7.61461 8.07354 7.32699 8.63803C7.13419 9.01641 7.06288 9.40963 7.03057 9.80497C6.99997 10.1795 6.99999 10.6343 7 11.1614V18.8385C6.99999 19.3657 6.99997 19.8205 7.03057 20.195C7.06288 20.5904 7.13419 20.9836 7.32699 21.362C7.61461 21.9265 8.07355 22.3854 8.63803 22.673C9.01641 22.8658 9.40963 22.9371 9.80498 22.9694C10.1795 23 10.6343 23 11.1614 23H18.8385C19.3656 23 19.8205 23 20.195 22.9694C20.5904 22.9371 20.9836 22.8658 21.362 22.673C21.9265 22.3854 22.3854 21.9265 22.673 21.362C22.8658 20.9836 22.9371 20.5904 22.9694 20.195C23 19.8205 23 19.3657 23 18.8385V11.1615C23 10.6343 23 10.1796 22.9694 9.80497C22.9371 9.40963 22.8658 9.01641 22.673 8.63803C22.3854 8.07354 21.9265 7.6146 21.362 7.32698C20.9836 7.13419 20.5904 7.06287 20.195 7.03057C19.8205 6.99997 19.3657 6.99998 18.8385 7ZM19.2071 13.2071C19.5976 12.8166 19.5976 12.1834 19.2071 11.7929C18.8166 11.4024 18.1834 11.4024 17.7929 11.7929L14 15.5858L12.7071 14.2929C12.3166 13.9024 11.6834 13.9024 11.2929 14.2929C10.9024 14.6834 10.9024 15.3166 11.2929 15.7071L13.2929 17.7071C13.6834 18.0976 14.3166 18.0976 14.7071 17.7071L19.2071 13.2071Z" fill="#801ED7"/>
<path d="M5.16146 1H12.8385C13.3657 0.999984 13.8205 0.999969 14.195 1.03057C14.5904 1.06287 14.9836 1.13419 15.362 1.32698C15.9265 1.6146 16.3854 2.07354 16.673 2.63803C16.8658 3.01641 16.9371 3.40963 16.9694 3.80497C16.9969 4.14076 16.9997 4.54098 17 5.00003L11.1191 5.00001C10.6305 4.9999 10.1007 4.99977 9.64211 5.03724C9.12309 5.07964 8.43737 5.1846 7.73005 5.54499C6.78924 6.02436 6.02434 6.78926 5.54497 7.73007C5.18458 8.43739 5.07962 9.12311 5.03722 9.64213C4.99975 10.1007 4.99988 10.6305 4.99999 11.1192L5.00001 17C4.54097 16.9997 4.14075 16.9969 3.80497 16.9694C3.40963 16.9371 3.01641 16.8658 2.63803 16.673C2.07354 16.3854 1.6146 15.9265 1.32698 15.362C1.13419 14.9836 1.06287 14.5904 1.03057 14.195C0.999967 13.8205 0.999984 13.3658 1 12.8386V5.16148C0.999984 4.63437 0.999967 4.17952 1.03057 3.80497C1.06287 3.40963 1.13419 3.01641 1.32698 2.63803C1.6146 2.07354 2.07354 1.6146 2.63803 1.32698C3.01641 1.13419 3.40963 1.06287 3.80497 1.03057C4.17953 0.999969 4.63433 0.999984 5.16146 1Z" fill="#801ED7"/>
</svg>
